X:1
T:Sing Aloud with Gladness
T:David Elijah Dortch
T:Sing Aloud with Gladness
T:Public Domain
T:Public Domain
C:David Elijah Dortch
Z:Public Domain
%%score 1 ( 2 3 )
L:1/8
M:4/4
K:G
V:1 treble 
V:2 bass 
V:3 bass 
V:1
 [B,D]>[B,G] | [DB]>[DB] [DB]>[CA] [B,G]2 [B,G]>[DF] | [CE]>[EG] [Ec]>[Ec] [DB]2 [DB]>[DB] | %3
w: 1.~Oh! I|love the Gos- pel song, How it|sweet- ly rolls a- long, Let the|
w: 2.~Down the|cen- tu- ries it came, Glo- ry,|glo- ry to His Name, Free sal-|
w: 3.~Haste, all|lands, for Christ make room, Earth shall|yield her sin and gloom, All her|
 [DB]>[DA] [DA]>[DA] [DA]2 [Fd]>[Fd] | [Fd]3 [E^c] [Ge]<[Fd] [Fd]>[Fc] | %5
w: earth the strains pro- long, Sing a-|loud with glad- ness: Bless- èd|
w: va- tion to pro- claim, Sing a-|loud with glad- ness: And this|
w: des- ert plac- es bloom, Sing a-|loud with glad- ness: And this|
 [GB]>[DB] [DB]>[B,A] [B,A]<[B,G] [B,G]>[DF] | [CE]>[EG] [Ec]>[Ec] [Ec]<[DB] [GB]>[Gc] | %7
w: news to sin- ners bring- ing, While the|an- gel choirs are sing- ing, And the|
w: mel- o- dy so hoar- y, Is hu-|man- i- ty’s rich glo- ry, And e-|
w: won- der- ful sal- va- tion Shall be|sung by ev- ’ry na- tion, While He|
 [Gd]>[Gd] [Gd]>[Ge] [=Fd]<[Ec] [DG]>[EA] | [DB]3 [CA] [CA]<[B,G] |] %9
w: bells of Heav’n are ring- ing, Sing a-|loud with glad- ness.|
w: ter- ni- ty’s sweet stor- y, Sing a-|loud with glad- ness.|
w: rules the vast cre- a- tion, Sing a-|loud with glad- ness.|
V:2
 G,>G, | G,>G, [D,G,]>[D,F,] [G,,G,]2 [G,,G,]>[B,,G,] | [C,G,]>[C,G,] [C,G,]>[E,G,] G,2 G,>G, | %3
 [D,G,]>[D,F,] [D,F,]>[D,F,] [D,F,]2 [D,A,]>[D,A,] | [A,,A,]3 [A,,A,] [A,,^C,]<D, [D,B,]>[D,A,] | %5
 G,>G, [D,G,]>[D,F,] [G,,G,]<[G,,G,] [G,,G,]>[B,,G,] | %6
 [C,G,]>[C,G,] [C,G,]>[E,G,] G,<G, G,>[G,A,] | %7
 [G,B,]>[G,B,] [G,B,]>[G,C] [B,,G,]<[C,G,] [B,,G,]>[C,G,] | [D,G,]3 [D,F,] [D,F,]<[G,,G,] |] %9
V:3
 G,>G, | G,>G, x6 | x4 G,2 G,>G, | x8 | x9/2 D,3/2 x2 | G,>G, x6 | x4 G,<G, G,3/2 x/ | x8 | x6 |] %9

